X:93
M:6/8
L:1/8
Q:"Moderato  "3/8=95
K:G
!p![DB,]|([DB,][EC][GB,]) [G2B,2] [GB,]|(BAG) (E2 G) &D3C3|\
([DB,][EC][GB,]) ([GB,]d>[BD])|(BAG) G2 E &[F2C2] B, B,2 x|
([DB,][EC][GB,]) [G2B,2] [GB,]|(BAG) [E2C2] [ec] &D2 z x3|\
([d2B2] [ec]) ([dB]BG)|([BD][AC][GB,]) [G2B,2] H||
[d2B2] [ec] ([dB]BG)|(BAG) E2 G|\
(DEG) (Gd>B)|[BD][AC][GB,] [G2B,2] !D.C.!||

